X:1
T:The Willow and the Oak
T:Benjamin Burke Beall
T:The Willow and the Oak
T:Public Domain
T:Public Domain
C:Benjamin Burke Beall
Z:Public Domain
%%score ( 1 2 ) ( 3 4 )
L:1/8
M:4/4
K:D
V:1 treble 
V:2 treble 
V:3 bass 
V:4 bass 
V:1
 [FA]2 | [Fd]2 [Fd]>[Fd] [Gd]2 (c>B) | [GB] [FA]2 [^E^G] [FA]2 [FA]2 | %3
w: 1.~I|saw, when the wind swept *|ver the mead, The wil-|
w: 2.~The|storm had passed by, the *|low up- rose, Her branch-|
w: 3.~O|Christ- ians, look up! life’s *|will soon pass; Re- joice|
w: 4.~And|thou, who art proud, O *|ye in time, Nor fall|
 [FA] [EG]2 [^DF] [EG]2 [FA]>[EG] | [DF]6 [DF]>[DF] | [DF]2 [EF]>[EF] [DB]2 [Fd]>[Fd] | %6
w: low that stands by the brook;|Bend- ing low,|as, with pi- ti- less force,|
w: es in beau- ty out- spread;|But the mon-|arch of trees, in his pride|
w: ye with sor- row low bowed;|O- ur Lord|in His hand holds the light-|
w: as the des- o- late tree!|G- od’s mer-|cy, His in- fi- nite love|
 [Fc]2 [^EB]2 [FA]2 [GA]2 | [FA]2 [EG]>[DF] [DF]2 [CE]2 | D6 ||"^Refrain" [FA]2 | %10
w: the storm Threw down|the un- bend- ing oak.|||
w: cast down, Lay prone|on the earth and dead.|Bend|till|
w: ning’s shaft, His smile|is be- hind the cloud.|||
w: are thine, A- wait-|ing, in- vit- ing thee.|||
 [FA]2 [F^A]>[FA] [FB]2 [F=A]>[FA] | [EG][EG]- [EG]4 [EG]2 | [EG]2 [E^G]>[EG] [EA]2 [E=G]>[EG] | %13
w: |||
w: the storm pass- eth o- ver,|The sun * will|shine out by and by; Bend|
w: |||
w: |||
 [DF]6 [FA]2 | [FA]2 [F^A]>[FA] [FB]2 [=Ac]>[Ac] | [GB][GB]- [GB]4 [GB]>[GB] | %16
w: |||
w: low till|the storm pass- eth o- ver,|And the * stars twin-|
w: |||
w: |||
 [FA]2 [EG]>[DF] [DF]2 [CE]>[CE] | D6 |] %18
w: ||
w: kle out in the sky. *||
w: ||
w: ||
V:2
 x2 | x6 G2 | x8 | x8 | x8 | x8 | x8 | x8 | D6 || x2 | x8 | x8 | x8 | x8 | x8 | x8 | x8 | D6 |] %18
w: |o-|||||||||||||||||
w: |wil-|||||||low||||||||||
w: |storms|||||||||||||||||
w: |turn|||||||||||||||||
V:3
 [D,D]2 | [D,A,]2 [D,A,]>[D,A,] [D,B,]2 (C>D) | [D,D] [D,D]2 [D,D] [D,D]2 [D,D]2 | %3
 [A,,C] [A,,C]2 [A,,C] [A,,C]2 [A,,A,]>[A,,A,] | [D,A,]6 [D,A,]>[D,A,] | %5
 [D,A,]2 [C,^A,]>[C,A,] [B,,B,]2 [B,,B,]>[B,,B,] | [C,A,]2 [C,^G,]2 [F,A,]2 [E,A,]2 | %7
 [D,A,]2 [G,B,]>[G,B,] A,2 [A,,G,]2 | [D,F,]6 || [D,D]2 | %10
 [D,D]2 [C,E]>[C,E] [B,,D]2 [^D,B,]>[D,B,] | [E,B,][E,B,]- [E,B,]4 [C,C]2 | %12
 [C,C]2 [B,,D]>[B,,D] [A,,C]2 [C,A,]>[C,A,] | [D,A,]6 [D,D]2 | %14
 [D,D]2 [C,E]>[C,E] [B,,D]2 [F,D]>[F,D] | [G,D][G,D]- [G,D]4 [G,D]>[G,D] | %16
 [D,D]2 [G,B,]>[G,B,] A,2 [A,,G,]>[A,,G,] | [D,F,]6 |] %18
V:4
 x2 | x6 D,2 | x8 | x8 | x8 | x8 | x8 | x4 A,2 x2 | x6 || x2 | x8 | x8 | x8 | x8 | x8 | x8 | %16
 x4 A,2 x2 | x6 |] %18

